X:1
T:The Weaver
F:http://www.folkinfo.org/songs
B:The Penguin Book of Canadian Folk Songs.
S:From Dan Leahy, an Irish farm labourer in Marchurst, Ontario.
M:2/4
L:1/8
K:D
B,1/2 B,1/2|D D D F|E D B, D|
w:Oh, as I roved out one moon-light night, The
D D (D1/2E1/2) F1/2 F1/2|A E F A|
w:stars were shin-*ing and all things bright. I
B1/2 B1/2 B1/2 B1/2 d B1/2 B1/2| A F1/2 F1/2 d3/2 F1/2|
w:spied a pret-ty maid by the light of the moon, And
F F1/2 F1/2 F E1/2 E1/2|D1/2 D1/2  B, B,||
w:un-der her ap-ron she car-ried a loom.
A,1/2 A,1/2| D D D1/2 F1/2 E1/2 E1/2|F B, B, z|
w:To me right wack fal the doo-a-di-do-day,
D D D1/2 E1/2 F1/2 G1/2|A E F z|
w:Right whack fal the doo-a-di-do-day,
B3/2 c1/2 d B|d F F E1/2 D1/2|
w:Too-ra loo-ra loo-ra lay, To me
E E E1/2 E1/2 F1/2 F1/2|E D B,||
w:right wack fal the doo-a di-do-day. 